Newaita-dark/apps/24/inkscape.svg

<?xml version="1.0" encoding="UTF-8"?>
<svg xmlns="http://www.w3.org/2000/svg" xmlns:xlink="http://www.w3.org/1999/xlink" width="24pt" height="24pt" viewBox="0 0 24 24" version="1.1">
<defs>
<linearGradient id="linear0" gradientUnits="userSpaceOnUse" x1="254" y1="233.5" x2="254" y2="254.666672" gradientTransform="matrix(0.0468795,0,0,0.0468795,-0.0000028613,10.079089)">
<stop offset="0" style="stop-color:rgb(0%,0%,0%);stop-opacity:0.27451;"/>
<stop offset="1" style="stop-color:rgb(0%,0%,0%);stop-opacity:0;"/>
</linearGradient>
<radialGradient id="radial0" gradientUnits="userSpaceOnUse" cx="450.908936" cy="189.579361" fx="450.908936" fy="189.579361" r="21.166656" gradientTransform="matrix(0.000000130628,-0.0585994,-0.105479,-0.0000000761539,32.40008,47.696499)">
<stop offset="0" style="stop-color:rgb(0%,0%,0%);stop-opacity:0.313725;"/>
<stop offset="0.222222" style="stop-color:rgb(0%,0%,0%);stop-opacity:0.27451;"/>
<stop offset="1" style="stop-color:rgb(0%,0%,0%);stop-opacity:0;"/>
</radialGradient>
<radialGradient id="radial1" gradientUnits="userSpaceOnUse" cx="450.908936" cy="189.579361" fx="450.908936" fy="189.579361" r="21.166656" gradientTransform="matrix(-0.000000130628,0.0585994,0.105479,0.0000000761539,-8.585305,-5.645609)">
<stop offset="0" style="stop-color:rgb(0%,0%,0%);stop-opacity:0.313725;"/>
<stop offset="0.222222" style="stop-color:rgb(0%,0%,0%);stop-opacity:0.27451;"/>
<stop offset="1" style="stop-color:rgb(0%,0%,0%);stop-opacity:0;"/>
</radialGradient>
<radialGradient id="radial2" gradientUnits="userSpaceOnUse" cx="450.908936" cy="189.579361" fx="450.908936" fy="189.579361" r="21.166656" gradientTransform="matrix(-0.000000130628,-0.0585994,0.105479,-0.0000000761539,-8.585305,47.696499)">
<stop offset="0" style="stop-color:rgb(0%,0%,0%);stop-opacity:0.313725;"/>
<stop offset="0.222222" style="stop-color:rgb(0%,0%,0%);stop-opacity:0.27451;"/>
<stop offset="1" style="stop-color:rgb(0%,0%,0%);stop-opacity:0;"/>
</radialGradient>
<radialGradient id="radial3" gradientUnits="userSpaceOnUse" cx="450.908936" cy="189.579361" fx="450.908936" fy="189.579361" r="21.166656" gradientTransform="matrix(0.000000130628,0.0585994,-0.105479,0.0000000761539,32.400079,-5.64561)">
<stop offset="0" style="stop-color:rgb(0%,0%,0%);stop-opacity:0.313725;"/>
<stop offset="0.222222" style="stop-color:rgb(0%,0%,0%);stop-opacity:0.27451;"/>
<stop offset="1" style="stop-color:rgb(0%,0%,0%);stop-opacity:0;"/>
</radialGradient>
<linearGradient id="linear1" gradientUnits="userSpaceOnUse" x1="960" y1="1695.118164" x2="960" y2="175.118134" gradientTransform="matrix(1,0,0,1,0,0)">
<stop offset="0" style="stop-color:rgb(25.882353%,25.882353%,25.882353%);stop-opacity:1;"/>
<stop offset="1" style="stop-color:rgb(38.039216%,38.039216%,38.039216%);stop-opacity:1;"/>
</linearGradient>
<linearGradient id="linear2" gradientUnits="userSpaceOnUse" x1="960" y1="1695.118164" x2="960" y2="175.118134" gradientTransform="matrix(1,0,0,1,0,0)">
<stop offset="0" style="stop-color:rgb(25.882353%,25.882353%,25.882353%);stop-opacity:1;"/>
<stop offset="1" style="stop-color:rgb(38.039216%,38.039216%,38.039216%);stop-opacity:1;"/>
</linearGradient>
<linearGradient id="linear3" gradientUnits="userSpaceOnUse" x1="960" y1="615.118103" x2="960" y2="175.118134" gradientTransform="matrix(1,0,0,1,0,0)">
<stop offset="0" style="stop-color:rgb(87.843137%,87.843137%,87.843137%);stop-opacity:1;"/>
<stop offset="1" style="stop-color:rgb(93.333333%,93.333333%,93.333333%);stop-opacity:1;"/>
</linearGradient>
</defs>
<g id="surface1">
<path style=" stroke:none;fill-rule:nonzero;fill:url(#linear0);" d="M 11.164062 21.027344 L 12.652344 21.027344 L 12.652344 22.019531 L 11.164062 22.019531 Z M 11.164062 21.027344 "/>
<path style=" stroke:none;fill-rule:nonzero;fill:url(#radial0);" d="M 12.652344 21.027344 L 14.636719 21.027344 L 14.636719 20.03125 L 12.652344 20.03125 Z M 12.652344 21.027344 "/>
<path style=" stroke:none;fill-rule:nonzero;fill:url(#radial1);" d="M 11.164062 21.027344 L 9.179688 21.027344 L 9.179688 22.019531 L 11.164062 22.019531 Z M 11.164062 21.027344 "/>
<path style=" stroke:none;fill-rule:nonzero;fill:url(#radial2);" d="M 11.164062 21.027344 L 9.179688 21.027344 L 9.179688 20.03125 L 11.164062 20.03125 Z M 11.164062 21.027344 "/>
<path style=" stroke:none;fill-rule:nonzero;fill:url(#radial3);" d="M 12.652344 21.027344 L 14.636719 21.027344 L 14.636719 22.019531 L 12.652344 22.019531 Z M 12.652344 21.027344 "/>
<path style="fill-rule:evenodd;fill:url(#linear1);stroke-width:1;stroke-linecap:butt;stroke-linejoin:miter;stroke:url(#linear2);stroke-miterlimit:4;" d="M 959.908384 170.062509 C 932.509424 170.062509 905.110464 185.179176 879.916018 215.097581 L 199.980913 1015.021234 C 170.062509 1055.017417 189.903135 1085.250751 199.980913 1095.013599 C 479.954192 1294.994513 599.94274 1294.994513 820.07921 1614.963974 C 919.912201 1735.267452 999.904566 1735.267452 1079.896932 1614.963974 C 1319.874028 1294.994513 1439.862576 1294.994513 1720.150785 1095.013599 C 1729.913633 1085.250751 1750.069189 1055.017417 1720.150785 1015.021234 L 1039.900749 215.097581 C 1015.021234 185.179176 987.622274 170.062509 959.908384 170.062509 Z M 959.908384 170.062509 " transform="matrix(0.0124035,0,0,0.0124035,0,0)"/>
<path style="fill-rule:evenodd;fill:url(#linear3);stroke-width:11.338583;stroke-linecap:butt;stroke-linejoin:miter;stroke:rgb(12.941177%,12.941177%,12.941177%);stroke-opacity:1;stroke-miterlimit:4;" d="M 959.908384 170.062509 C 932.509424 170.062509 905.110464 185.179176 879.916018 215.097581 L 506.093429 655.05559 C 599.94274 895.032686 700.090662 895.032686 793.310111 810.316362 C 940.067758 615.059407 982.898316 820.39414 1040.53061 657.889965 C 1119.893114 435.234051 1279.877845 975.025051 1414.038269 655.05559 L 1039.900749 215.097581 C 1015.021234 185.179176 987.622274 170.062509 959.908384 170.062509 Z M 959.908384 170.062509 " transform="matrix(0.0124035,0,0,0.0124035,0,0)"/>
<path style=" stroke:none;fill-rule:evenodd;fill:rgb(100%,100%,100%);fill-opacity:0.607843;" d="M 11.90625 2.109375 C 11.566406 2.109375 11.226562 2.296875 10.914062 2.667969 L 2.480469 12.589844 C 2.304688 12.828125 2.265625 13.035156 2.289062 13.203125 C 2.308594 13.074219 2.363281 12.933594 2.480469 12.777344 L 10.914062 2.855469 C 11.226562 2.480469 11.566406 2.296875 11.90625 2.296875 C 12.25 2.296875 12.589844 2.480469 12.898438 2.855469 L 21.335938 12.777344 C 21.449219 12.933594 21.507812 13.074219 21.523438 13.203125 C 21.546875 13.035156 21.511719 12.828125 21.335938 12.589844 L 12.898438 2.667969 C 12.589844 2.296875 12.25 2.109375 11.90625 2.109375 Z M 11.90625 2.109375 "/>
<path style=" stroke:none;fill-rule:evenodd;fill:rgb(0%,0%,0%);fill-opacity:0.27451;" d="M 2.289062 13.015625 C 2.25 13.296875 2.394531 13.496094 2.480469 13.582031 C 5.953125 16.0625 7.441406 16.0625 10.171875 20.03125 C 11.410156 21.523438 12.402344 21.523438 13.394531 20.03125 C 16.371094 16.0625 17.859375 16.0625 21.335938 13.582031 C 21.417969 13.5 21.5625 13.296875 21.523438 13.015625 C 21.496094 13.199219 21.398438 13.332031 21.335938 13.398438 C 17.859375 15.878906 16.371094 15.878906 13.394531 19.847656 C 12.402344 21.335938 11.410156 21.335938 10.171875 19.847656 C 7.441406 15.878906 5.953125 15.878906 2.480469 13.398438 C 2.414062 13.332031 2.316406 13.199219 2.289062 13.015625 Z M 2.289062 13.015625 "/>
<path style=" stroke:none;fill-rule:evenodd;fill:rgb(12.941177%,12.941177%,12.941177%);fill-opacity:1;" d="M 11.90625 2.039062 C 11.539062 2.039062 11.179688 2.242188 10.859375 2.625 L 2.425781 12.546875 L 2.425781 12.550781 C 2.230469 12.808594 2.191406 13.050781 2.226562 13.238281 C 2.261719 13.429688 2.359375 13.5625 2.429688 13.632812 L 2.433594 13.636719 L 2.441406 13.640625 C 4.179688 14.882812 5.421875 15.503906 6.5625 16.308594 C 7.707031 17.109375 8.75 18.09375 10.113281 20.074219 L 10.117188 20.078125 C 10.742188 20.828125 11.316406 21.21875 11.875 21.21875 C 12.4375 21.21875 12.949219 20.828125 13.453125 20.074219 C 14.9375 18.09375 16.046875 17.109375 17.21875 16.308594 C 18.390625 15.503906 19.632812 14.882812 21.375 13.640625 L 21.382812 13.632812 C 21.453125 13.5625 21.554688 13.429688 21.589844 13.238281 C 21.625 13.050781 21.585938 12.808594 21.390625 12.550781 L 21.390625 12.546875 L 12.953125 2.625 C 12.632812 2.242188 12.273438 2.039062 11.90625 2.039062 Z M 11.90625 2.179688 C 12.222656 2.179688 12.542969 2.351562 12.84375 2.714844 L 12.847656 2.714844 L 21.277344 12.632812 C 21.453125 12.871094 21.480469 13.0625 21.449219 13.214844 C 21.421875 13.363281 21.339844 13.476562 21.289062 13.53125 C 19.558594 14.765625 18.320312 15.382812 17.140625 16.191406 C 15.957031 17 14.832031 18 13.339844 19.992188 L 13.335938 19.996094 C 12.847656 20.730469 12.371094 21.078125 11.875 21.078125 C 11.382812 21.078125 10.839844 20.726562 10.226562 19.988281 C 8.859375 18.003906 7.796875 17.003906 6.644531 16.191406 C 5.492188 15.382812 4.257812 14.765625 2.527344 13.53125 C 2.472656 13.476562 2.390625 13.363281 2.363281 13.214844 C 2.335938 13.0625 2.359375 12.867188 2.535156 12.632812 L 10.96875 2.714844 C 11.269531 2.351562 11.59375 2.179688 11.90625 2.179688 Z M 11.90625 2.179688 "/>
</g>
</svg>

<svg xmlns="http://www.w3.org/2000/svg" width="32" height="32" viewBox="0 0 24 24"><defs><linearGradient id="a" gradientUnits="userSpaceOnUse" x1="254" y1="233.5" x2="254" y2="254.667" gradientTransform="matrix(.04688 0 0 .04688 0 10.08)"><stop offset="0" stop-opacity=".275"/><stop offset="1" stop-opacity="0"/></linearGradient><radialGradient id="b" gradientUnits="userSpaceOnUse" cx="450.909" cy="189.579" fx="450.909" fy="189.579" r="21.167" gradientTransform="matrix(0 -.0586 -.10548 0 32.4 47.696)"><stop offset="0" stop-opacity=".314"/><stop offset=".222" stop-opacity=".275"/><stop offset="1" stop-opacity="0"/></radialGradient><radialGradient id="c" gradientUnits="userSpaceOnUse" cx="450.909" cy="189.579" fx="450.909" fy="189.579" r="21.167" gradientTransform="matrix(0 .0586 .10548 0 -8.585 -5.646)"><stop offset="0" stop-opacity=".314"/><stop offset=".222" stop-opacity=".275"/><stop offset="1" stop-opacity="0"/></radialGradient><radialGradient id="d" gradientUnits="userSpaceOnUse" cx="450.909" cy="189.579" fx="450.909" fy="189.579" r="21.167" gradientTransform="matrix(0 -.0586 .10548 0 -8.585 47.696)"><stop offset="0" stop-opacity=".314"/><stop offset=".222" stop-opacity=".275"/><stop offset="1" stop-opacity="0"/></radialGradient><radialGradient id="e" gradientUnits="userSpaceOnUse" cx="450.909" cy="189.579" fx="450.909" fy="189.579" r="21.167" gradientTransform="matrix(0 .0586 -.10548 0 32.4 -5.646)"><stop offset="0" stop-opacity=".314"/><stop offset=".222" stop-opacity=".275"/><stop offset="1" stop-opacity="0"/></radialGradient><linearGradient id="f" gradientUnits="userSpaceOnUse" x1="960" y1="1695.118" x2="960" y2="175.118"><stop offset="0" stop-color="#424242"/><stop offset="1" stop-color="#616161"/></linearGradient><linearGradient id="g" gradientUnits="userSpaceOnUse" x1="960" y1="1695.118" x2="960" y2="175.118"><stop offset="0" stop-color="#424242"/><stop offset="1" stop-color="#616161"/></linearGradient><linearGradient id="h" gradientUnits="userSpaceOnUse" x1="960" y1="615.118" x2="960" y2="175.118"><stop offset="0" stop-color="#e0e0e0"/><stop offset="1" stop-color="#eee"/></linearGradient></defs><path d="M11.164 21.027h1.488v.993h-1.488zm0 0" fill="url(#a)"/><path d="M12.652 21.027h1.985v-.996h-1.985zm0 0" fill="url(#b)"/><path d="M11.164 21.027H9.18v.993h1.984zm0 0" fill="url(#c)"/><path d="M11.164 21.027H9.18v-.996h1.984zm0 0" fill="url(#d)"/><path d="M12.652 21.027h1.985v.993h-1.985zm0 0" fill="url(#e)"/><path d="M959.908 170.063c-27.399 0-54.798 15.116-79.992 45.035L199.981 1015.02c-29.918 39.996-10.078 70.23 0 79.993 279.973 199.98 399.962 199.98 620.098 519.95 99.833 120.303 179.826 120.303 259.818 0 239.977-319.97 359.966-319.97 640.254-519.95 9.763-9.763 29.918-39.997 0-79.993L1039.9 215.098c-24.88-29.919-52.279-45.035-79.993-45.035zm0 0" transform="scale(.0124)" fill-rule="evenodd" fill="url(#f)" stroke="url(#g)"/><path d="M959.908 170.063c-27.399 0-54.798 15.116-79.992 45.035L506.093 655.056c93.85 239.977 193.998 239.977 287.217 155.26 146.758-195.257 189.588 10.078 247.22-152.426 79.363-222.656 239.348 317.135 373.508-2.834l-374.137-439.958c-24.88-29.919-52.279-45.035-79.993-45.035zm0 0" transform="scale(.0124)" fill-rule="evenodd" fill="url(#h)" stroke-width="11.339" stroke="#212121"/><path d="M11.906 2.11c-.34 0-.68.187-.992.558L2.48 12.59c-.175.238-.214.445-.19.613a.938.938 0 0 1 .19-.426l8.434-9.922c.313-.375.652-.558.992-.558.344 0 .684.183.992.558l8.438 9.922a.926.926 0 0 1 .187.426c.024-.168-.011-.375-.187-.613l-8.438-9.922c-.308-.371-.648-.559-.992-.559zm0 0" fill-rule="evenodd" fill="#fff" fill-opacity=".608"/><path d="M2.29 13.016c-.04.28.105.48.19.566 3.473 2.48 4.961 2.48 7.692 6.45 1.238 1.491 2.23 1.491 3.223 0 2.976-3.97 4.464-3.97 7.94-6.45a.68.68 0 0 0 .188-.566.727.727 0 0 1-.187.382c-3.477 2.48-4.965 2.48-7.941 6.45-.993 1.488-1.985 1.488-3.223 0-2.73-3.97-4.219-3.97-7.692-6.45a.7.7 0 0 1-.19-.382zm0 0" fill-rule="evenodd" fill-opacity=".275"/><path d="M11.906 2.04c-.367 0-.726.202-1.047.585l-8.433 9.922v.004c-.196.258-.235.5-.2.687a.756.756 0 0 0 .204.395l.004.004.007.004c1.739 1.242 2.98 1.863 4.121 2.668 1.145.8 2.188 1.785 3.551 3.765l.004.004c.625.75 1.2 1.14 1.758 1.14.563 0 1.074-.39 1.578-1.144 1.485-1.98 2.594-2.965 3.766-3.765 1.172-.805 2.414-1.426 4.156-2.668l.008-.008a.757.757 0 0 0 .207-.395c.035-.187-.004-.43-.2-.687v-.004l-8.437-9.922c-.32-.383-.68-.586-1.047-.586zm0 .14c.317 0 .637.172.938.535h.004l8.43 9.918c.175.238.202.43.171.582a.66.66 0 0 1-.16.316c-1.73 1.235-2.969 1.852-4.148 2.66C15.957 17 14.832 18 13.34 19.992l-.004.004c-.488.734-.965 1.082-1.461 1.082-.492 0-1.035-.351-1.648-1.09-1.368-1.984-2.43-2.984-3.582-3.797-1.153-.808-2.387-1.425-4.118-2.66a.627.627 0 0 1-.164-.316c-.027-.152-.004-.348.172-.582l8.434-9.918c.3-.363.625-.535.937-.535zm0 0" fill-rule="evenodd" fill="#212121"/></svg>
